icons/numpy/numpy-original.svg

<?xml version="1.0" encoding="UTF-8"?>
<svg xmlns="http://www.w3.org/2000/svg" xmlns:xlink="http://www.w3.org/1999/xlink" width="128pt" height="128pt" viewBox="0 0 128 128" version="1.1">
<g id="surface1">
<path style=" stroke:none;fill-rule:nonzero;fill:rgb(30.196078%,67.058824%,81.176471%);fill-opacity:1;" d="M 54.320312 27.164062 L 33.304688 16.558594 L 10.226562 28.070312 L 31.820312 38.910156 Z M 54.320312 27.164062 "/>
<path style=" stroke:none;fill-rule:nonzero;fill:rgb(30.196078%,67.058824%,81.176471%);fill-opacity:1;" d="M 63.960938 32.03125 L 86 43.160156 L 63.136719 54.636719 L 41.511719 43.78125 Z M 63.960938 32.03125 "/>
<path style=" stroke:none;fill-rule:nonzero;fill:rgb(30.196078%,67.058824%,81.176471%);fill-opacity:1;" d="M 93.398438 16.714844 L 116.042969 28.070312 L 95.789062 38.238281 L 73.707031 27.097656 Z M 93.398438 16.714844 "/>
<path style=" stroke:none;fill-rule:nonzero;fill:rgb(30.196078%,67.058824%,81.176471%);fill-opacity:1;" d="M 83.652344 11.824219 L 63.265625 1.601562 L 43.101562 11.667969 L 64.109375 22.257812 Z M 83.652344 11.824219 "/>
<path style=" stroke:none;fill-rule:nonzero;fill:rgb(30.196078%,67.058824%,81.176471%);fill-opacity:1;" d="M 67.714844 99.605469 L 67.714844 127.421875 L 92.410156 115.097656 L 92.386719 87.269531 Z M 67.714844 99.605469 "/>
<path style=" stroke:none;fill-rule:nonzero;fill:rgb(30.196078%,67.058824%,81.176471%);fill-opacity:1;" d="M 92.375 77.554688 L 92.347656 50.019531 L 67.714844 62.265625 L 67.714844 89.8125 Z M 92.375 77.554688 "/>
<path style=" stroke:none;fill-rule:nonzero;fill:rgb(30.196078%,67.058824%,81.176471%);fill-opacity:1;" d="M 122.023438 72.398438 L 122.023438 100.324219 L 100.957031 110.832031 L 100.941406 83.035156 Z M 122.023438 72.398438 "/>
<path style=" stroke:none;fill-rule:nonzero;fill:rgb(30.196078%,67.058824%,81.176471%);fill-opacity:1;" d="M 122.023438 62.632812 L 122.023438 35.265625 L 100.917969 45.757812 L 100.933594 73.347656 Z M 122.023438 62.632812 "/>
<path style=" stroke:none;fill-rule:nonzero;fill:rgb(30.196078%,46.666667%,81.176471%);fill-opacity:1;" d="M 58.996094 62.265625 L 42.367188 53.898438 L 42.367188 90.039062 C 42.367188 90.039062 22.019531 46.753906 20.140625 42.863281 C 19.898438 42.359375 18.898438 41.8125 18.644531 41.675781 C 14.976562 39.761719 4.289062 34.351562 4.289062 34.351562 L 4.289062 98.222656 L 19.074219 106.148438 L 19.074219 72.75 C 19.074219 72.75 39.203125 111.425781 39.410156 111.851562 C 39.621094 112.273438 41.628906 116.34375 43.792969 117.777344 C 46.664062 119.683594 58.988281 127.09375 58.988281 127.09375 Z M 58.996094 62.265625 "/>
</g>
</svg>

<?xml version="1.0" encoding="UTF-8"?><svg width="128pt" height="128pt" version="1.1" viewBox="0 0 128 128" xmlns="http://www.w3.org/2000/svg"><path d="m54.32 27.164-21.016-10.605-23.078 11.512 21.594 10.84z" color="#000000" fill="#4cabcf" style="-inkscape-stroke:none"/><path d="m63.961 32.031 22.039 11.129-22.863 11.477-21.625-10.855z" color="#000000" fill="#4cabcf" style="-inkscape-stroke:none"/><path d="m93.398 16.715 22.645 11.355-20.254 10.168-22.082-11.141z" color="#000000" fill="#4cabcf" style="-inkscape-stroke:none"/><path d="m83.652 11.824-20.387-10.223-20.164 10.066 21.008 10.59z" color="#000000" fill="#4cabcf" style="-inkscape-stroke:none"/><path d="m67.715 99.605v27.816l24.695-12.324-0.02344-27.828z" color="#000000" fill="#4cabcf" style="-inkscape-stroke:none"/><path d="m92.375 77.555-0.027344-27.535-24.633 12.246v27.547z" color="#000000" fill="#4cabcf" style="-inkscape-stroke:none"/><path d="m122.02 72.398v27.926l-21.066 10.508-0.0156-27.797z" color="#000000" fill="#4cabcf" style="-inkscape-stroke:none"/><path d="m122.02 62.633v-27.367l-21.105 10.492 0.0156 27.59z" color="#000000" fill="#4cabcf" style="-inkscape-stroke:none"/><path d="m58.996 62.266-16.629-8.3672v36.141s-20.348-43.285-22.227-47.176c-0.24219-0.50391-1.2422-1.0508-1.4961-1.1875-3.668-1.9141-14.355-7.3242-14.355-7.3242v63.871l14.785 7.9258v-33.398s20.129 38.676 20.336 39.102c0.21094 0.42188 2.2188 4.4922 4.3828 5.9258 2.8711 1.9062 15.195 9.3164 15.195 9.3164z" color="#000000" fill="#4c75cf" style="-inkscape-stroke:none"/></svg>
